X:1
T:Title
%%score { ( 1 3 ) | 2 }
L:1/8
M:3/4
K:Ab
V:1 treble nm="Grand Piano"
V:3 treble 
V:2 bass 
V:1
 z2 z2[Q:1/4=96] [CE]2 | [Ec]>[=D_c] [E=c]2 [Fd]2 | c>_c B2 E2 | B>=A B2 c2 | (3BAF [CE]2 E2 | %5
 c>_c [E=c]2 [_Ge]2 |[M:7/8] [Fe][F=d] [F_d]3 [=Ed]2 |[M:3/4] c>_c =c2 E2 | B>[CA] [CA]2 z A | %9
 Bc [Fd]2 [DF]2 | [CE][CA] [Ec]2 [CA]2 | [FB][Fc] [Fe]2 [=Ed]2 | [=EA][EB] [_Ec]2 z [Ec] | %13
 [=Ec][Ec] [Ed]2 [Ec]2 | Bc F2 G2 | AA B2 A2 |[M:4/4] [FG]F [=Ec]>[_Ed]- [Ed] [Ed]3 | %17
[M:3/4] [Ec]>[=D_c] [E=c]2 [Fd]2 | c>_c B2 E2 | B>=A B2 c2 | (3BAF [CE]2 E2 | c>_c [E=c]2 [_Ge]2 | %22
[M:7/8] [Fe][F=d] [F_d]3 [=Ed]2 |[M:3/4] c>_c =c2 E2 |[M:2/4] B>[CA] [CA]2 |] %25
V:2
 z2 z2 [A,,A,]2 | [A,,A,]>[A,,A,] [A,,A,]2 [A,,A,]2 | [E,A,E]>[E,A,=D] [E,G,_D]2 [E,G,D]2 | %3
 [E,G,D]>[E,G,C] [E,G,D]2 [E,G,E]2 | [A,,A,][A,,A,] [A,,A,]2 [A,C]2 | %5
 [A,E]>[A,=D] [A,,A,]2 [C,A,]2 |[M:7/8] [D,A,][D,A,] [D,A,]3 D,2 | %7
[M:3/4] [E,A,E]>[E,A,=D] [E,A,E]2 [E,A,C]2 | [E,G,D]>[A,,E,] [A,,E,]2 z A, | %9
 [A,G][A,_G][K:bass] [D,A,]2 [D,A,]2 | [A,,A,][A,,A,] [A,,A,]2 [A,,A,]2 | %11
 [D,A,][D,A,] [D,A,]2 [D,A,]2 | [D,A,][D,A,] [A,,A,]2 z [A,,A,] | [C,G,][C,G,] [C,G,]2 [C,C]2 | %14
 [F,CF][F,A,F] [F,A,]2 [F,B,F]2 | [F,CF][F,CF] [F,DF]2 [F,CF]2 | %16
[M:4/4] [D,B,][D,_C] [C,=C]>[E,B,]- [E,B,] [E,G,]3 |[M:3/4] [A,,A,]>[A,,A,] [A,,A,]2 [A,,A,]2 | %18
 [E,A,E]>[E,A,=D] [E,G,_D]2 [E,G,D]2 | [E,G,D]>[E,G,C] [E,G,D]2 [E,G,E]2 | %20
 [A,,A,][A,,A,] [A,,A,]2 [A,C]2 | [A,E]>[A,=D] [A,,A,]2 [C,A,]2 | %22
[M:7/8] [D,A,][D,A,] [D,A,]3 [D,A,]2 |[M:3/4] [E,A,E]>[E,A,=D] [E,A,E]2 [E,A,C]2 | %24
[M:2/4] [E,G,D]>[A,,E,] [A,,E,]2 |] %25
V:3
 x6 | x6 | x6 | x6 | CD z2 z2 | x6 |[M:7/8] x7 |[M:3/4] x6 | x6 | x6 | x6 | x6 | x6 | x6 | x6 | %15
 x6 |[M:4/4] x8 |[M:3/4] x6 | x6 | x6 | CD z2 z2 | x6 |[M:7/8] x7 |[M:3/4] x6 |[M:2/4] x4 |] %25

